assets/gcpcloudcdn/original.svg

<svg height="24" width="24" xmlns="http://www.w3.org/2000/svg"><path d="m2 2h20v20h-20z" fill="none"/><g fill-rule="evenodd"><path d="m12 2v2.41l3.13 3.22v-2.42z" fill="#669df6"/><path d="m19.5 12-3.12 3.13h2.5l3.12-3.13z" fill="#669df6"/><path d="m4.5 12 3.13 3.13h-2.5l-3.13-3.13z" fill="#669df6"/><path d="m12 22v-2.41l3.13-3.21v2.41z" fill="#669df6"/><path d="m12 2-3.12 3.21v2.42l3.12-3.22z" fill="#aecbfa"/><path d="m18.88 8.88h-2.5l3.12 3.12h2.5z" fill="#aecbfa"/><path d="m5.13 8.88h2.5l-3.13 3.12h-2.5z" fill="#aecbfa"/><path d="m12 22-3.12-3.21v-2.41l3.12 3.21z" fill="#aecbfa"/><path d="m15.13 15.13h-6.25v-6.25h6.25z" fill="#aecbfa"/><path d="m15.13 8.88v6.25h-6.25z" fill="#669df6"/><path d="m15.13 8.88v6.25l-3.13-3.13z" fill="#4285f4"/></g></svg>

<svg xmlns="http://www.w3.org/2000/svg" width="24" height="24"><path fill="none" d="M2 2h20v20H2z"/><g fill-rule="evenodd"><path fill="#669df6" d="M12 2v2.41l3.13 3.22V5.21zm7.5 10-3.12 3.13h2.5L22 12zm-15 0 3.13 3.13h-2.5L2 12zM12 22v-2.41l3.13-3.21v2.41z"/><path fill="#aecbfa" d="M12 2 8.88 5.21v2.42L12 4.41zm6.88 6.88h-2.5L19.5 12H22zm-13.75 0h2.5L4.5 12H2zM12 22l-3.12-3.21v-2.41L12 19.59zm3.13-6.87H8.88V8.88h6.25z"/><path fill="#669df6" d="M15.13 8.88v6.25H8.88z"/><path fill="#4285f4" d="M15.13 8.88v6.25L12 12z"/></g></svg>
